X:251
T:The Whistling Postman
M:4/4
L:1/8
R:reel
N:Learned from Kira Ott
N:Set is Kira's reel (#267) - ~ - The Chattering Magpie
Z:Michael Abraham Shulman
K:D
|:f~d3 e^def|dBAF E2FE|D~F3 ADFA|defd g2fg|
f~d3 e^def|dBAF E2FE|D~F3 ABdf|edBc d3e:|
f2ec dfaf|bfaf gfef|dfaf gfgb|afdf e2ag|
f2ec dfaf|bfaf gfef|d~B3 ABdf|edBc d3e|
f2ec dfaf|bfaf gfef|dfaf gfgb|afdf e2fg|
a2^gb afdf|gbfg edBc|dBAG FAdf|edBc d4||
